X: 11
T: Porthole Of The Kelp
C: Bobby Casey
Z: JACKB
S: https://thesession.org/tunes/263#setting46010
R: reel
M: 4/4
L: 1/8
K: Edor
EF|:G3F GFEF|G3A FDDF|GFEF GABA|GEFD E3F|
GFEF GABc|dBAG FEDF|EFGA Beec|dBAF FEE2:|
|:e3d edBA|G3A FDDF|Eeed edBA|(3Bcd ef e3f|
gefd edBc|dBAG FDDF|EFGA Beec|dBAF FEEF:|

